X: 122
T: By był Pan nie tak łaskaw na nasze zdrowie,
C: Mikołaj Gomółka
%%abc-version 2.0
%%abcx-abcm2ps-target-version 5.9.1 (29 Sep 2008)
%%abc-creator hum2abc beta
%%abcx-conversion-date 2021/10/04 07:59:10
%%abc-edited-by Marta Lawrence
%%abcx-initial-encoding-date 2020-02-20
%%humdrum-veritas 3120939122
%%humdrum-veritas-data 3001134956
%%linebreak <none>
%%barnumbers 0
L: 1/4
M: C|
N: Derived from pl-wn--sd-xvi-qu-273--124_gomolka-mikolaj--by-byl-pan-nie-tak-laskaw-na-nasze-zdrowie.krn
%%staves [1 2 3 4]
V: 1
V: 2
V: 3 clef=alto
V: 4 clef=bass
K: F
[V:1] B4A3B [|] 
[V:2] G4F3G [|] 
[V:3] D4D2D3/E/ [|] 
[V:4] G,,4D,3G, [|] 
[V:1] cd2cd2d2 [|] 
[V:2] AAA>G^F2G2 [|] 
[V:3] FFE2D2D2 [|] 
[V:4] F,D,A,2D,2G,2 [|] 
[V:1] cB2AB2A2 [|] 
[V:2] GG=F>ED2D2 [|] 
[V:3] _E>DC2B,2F2 [|] 
[V:4] E,E,F,2B,,2D,2 [|] 
[V:1] A2c2GAB4 [|] 
[V:2] C2G2G2G2 [|] 
[V:3] F2_E2D2CB, [|] 
[V:4] F,2C,2G,2G,2 [|] 
[V:1] A2B3B [|] 
[V:2] G2FE2<D2F [|] 
[V:3] C4B,3D [|] 
[V:4] _E,2F,2B,,3B,, [|] 
[V:1] GG2FG2G2 [|] 
[V:2] GGF>ED2D2 [|] 
[V:3] B,CA,2G,2B,2 [|] 
[V:4] =E,C,D,2G,,2G,2 [|] 
[V:1] F2>G2AB2A [|] 
[V:2] D2F2>E2F3/E/ [|] 
[V:3] B,2CDDC/B,/C2 [|] 
[V:4] B,2A,G,F,G,F,2 [|] 
[V:1] B2B2c2B4 [|] 
[V:2] D2D2G2_E2 [|] 
[V:3] B,2F2=EDCB, [|] 
[V:4] B,,2B,2E,2G,2 [|] 
[V:1] A2B2B2 [|] 
[V:2] F2>=E2D2F2 [|] 
[V:3] C4B,2B,2 [|] 
[V:4] F,4B,,2B,,2 [|] 
[V:1] A2GFG4 [|] 
[V:2] F2F2F2_E2 [|] 
[V:3] C2D4C2 [|] 
[V:4] F,2D,2E,4 [|] 
[V:1] F2G2A2B2 [|] 
[V:2] F2D2>D2F2 [|] 
[V:3] D2B,2A,2D2 [|] 
[V:4] D,2G,,2D,2B,,2 [|] 
[V:1] G2G4F2 [|] 
[V:2] _E2E2D3C [|] 
[V:3] C2>B,2A,G,A,2 [|] 
[V:4] C,2C,2D,4 [|] 
[V:1] G32 |]  
[V:2] B,32 |]  
[V:3] G,32 |]  
[V:4] G,,32 |]  


